X:1
T:Lacrimosa
T:(from the Requiem in D minor)
T:Wolfgang Amadeus Mozart (1756-1791)
%%score { ( 1 3 ) | ( 2 4 ) }
L:1/8
M:12/8
K:F
V:1 treble nm="Piano"
V:3 treble 
V:2 treble 
V:4 treble 
V:1
!p!"^Intro" z (^cd) z (ab) z (dc) z (=c'b) | z (ad') z (bg) z (ef) z (a^c) || %2
w: ||
 [FA]3- [FA][Af][Fd] ([G-Bd]3 [GA^c]2) z | [FA]3- [FA][Af][Fd] ([G-Bd]3 [GA^c]2) z | %4
w: La _ cri * mo- sa,|Di _ _ es il- la,|
 [F,A,D]2 z [A,^CE]2 z [A,DF]2 z [=CEG]2 z | [CFA]2 z [E^G=B]2 z [EAc]2 z [=GBd]2 z | %6
w: Qua Re- Sur- Get|Ex Fa- vil- la|
 [Gc_e]3 [Gc=e]3 [Fcf]3 [A_e^f]3 | [Gdg]3 [^Gdf^g]3 [Adfa]3 [EA^c]2 z | %8
w: Ju- di- can- dus|Ho- mo Re- us.|
 [EGA]3- [EGA][DB][^CGA] [DFA]3- [DFA][Af][Fd] | [GB^c]3- [G-Bc][GAc][Gce] [F-A-e]3 [FAd]3 | %10
w: La- * cri- * mo- * sa *|Di- * es * il- la|
 [_E-B-_e]3 [EBe][Bg][Ge] [F-A-e]3 [FAd]3 | x6 (e3 d2) z | x6 (f3 e2) z | e3- e2 A x6 | %14
w: Qua _ Re _ sur get|||Ho _ mo|
 ([F_A=B]3 [FAc]3 [FAd]3 [FAd]3) | ([F_Ad]3 [FAc]3 [FA=B]3 [FAB]3) | %16
w: Hu- ic Er- go|Par- ce De- us|
 ([FG=B]3 [EGc]3 [EGd]3) (c2 f) | ([d-f]3 [df]d=B) (c3- c_BG) | F (Ff) z (Ff) z (Ff) (Ac)f | %19
w: Pie * Je- su *|* * * * Do- * mi- *|ne. * * * * * * * * *|
 (f3- f)d=B z (c'a) z (_bg) | z ef z ^c'd' z (d^c) z (aA) | %21
w: ||
 [FA]3- [FA][Af][Fd] ([G-Bd]3 [GA^c]2) z | [FA]3- [FA][Af][Fd] ([G-Bd]3 [GA^c]2) z | %23
w: Do _ _ na Eis *|Re _ _ qui _ em|
 [FAd]3 [A=c]3 [dbd']3 [c^fac']3 | [Bgb]3 [A_ea]3 [GB=eg]3 [FAdf]3 | z3 [DFBd]3 [^CEAc]3 [DFAd]3 | %26
w: Do na Eis- *||* qui _|
 [EA^ce]3 [FAdf]3 [EAde]3 [EAce]3 | z ^cd z g^f z (ba) z (d'=c') | [GBd]12 | [^FAd]12 |] %30
w: _ em _ _||A|men.|
V:2
 [DF]2 z [FA]2 z [EG]2 z [G^c]2 z | [Fd]2 z[K:bass] [G,E]2 z [F,D]2 z [A,G]2 z || %2
 D,(^CD) F,(A,B,) E,(DC) A,,(B,A,) | D,(^CD) F,(A,B,) E,(DC) A,,(B,A,) | %4
 D,,(D,A,,) A,,,(E,A,,) D,,(F,D,) C,,(G,C,) | F,,(A,F,) E,,(=B,E,) A,,(CA,) =G,,(DG,) | %6
 C,(CG,) _B,,(CG,) A,,(CF,) C,(_EA,) | =B,,(DG,) _B,,(D^G,) A,,(DA,) A,,(^CA,) | %8
 ^C,(A,E,) A,,(A,G,) D,(A,F,) A,,(DA,) | E,(B,G,) A,,(EA,) F,(DA,) A,,(^CD) | %10
 G,,(B,_E,) G,,(_EB,) _A,,(EF,) A,,(DB,) | =A,,(DA,) A,,(DA,) B,,(B,F,) B,,(DB,) | %12
 =B,,(D_A,) B,,(DG,) C,(CG,) C,(EC) | ^C,(EB,) C,(EA,) F,(DA,) D,(A,F,) | %14
 D,F,=B, C,D,C =B,,F,D B,,F,B, | =B,,F,D C,F,C _D,F,=B, D,F,B, | =D,G,=B, C,G,C _B,,G,_B, A,,F,F, | %17
 B,,F,B, D,F,=B, C,F,C C,G,_B, | [F,A,]2 z [A,,C,_E,F,]2 z [B,,D,F,]2 z [C,E,F,]2 z | %19
 [B,,D,B,]2 z [D,F,_A,]2 z [C,F,=A,]2 z [C,E,B,]2 z | %20
 [F,A,]2 z [F,,F,]2 z [E,,E,]2 z [A,,,A,,]2 z | D,(^CD) F,(A,B,) E,(DC) A,,(B,A,) | %22
 D,(^CD) F,(A,B,) E,(DC) A,,(B,A,) | D,(^CD) ^F,(A,D) G,(CD) D,(A,D) | %24
 _E,(B,_E) C,([G,A,]E) ^C,([G,B,]=E) D,(A,D) | %25
 G,,(^D,_G,) _E,,([B,,C,]G,) =E,,([B,,_D,]=G,) F,,(C,F,) | %26
 A,,,(E,A,) A,,(F,D) A,,(E,A,) A,,,(^CE,) | [D,,D,]2 z [D,,D,]2 z [D,,D,]2 z [D,,D,]2 z | %28
 G,,(B,G,) D,(GD) B,,(DB,) G,,(B,G,) | [D,,D,]12 |] %30
V:3
 x12 | x12 || x12 | x12 | x12 | x12 | x12 | x12 | x12 | x12 | x12 | %11
w: |||||||||||
 [FAd]3 [FAd][Af][G=e] F3- FB_A | [F-_Ad-]3 [FGd]gf G3- Gc_B | [GB]3- [GB]A[EG] [EGA]3 [DFA]3 | %14
w: Ex _ _ Fa- vil- la, * *|Ju _ di _ can- dus * *|* * * * Re- us|
 x12 | x12 | x8 x F3 | [F-B]3 [FA]2 [FA] [F=A]3 [EG]2 E | x12 | z FB z2 z c3- c_BG | %20
w: ||||||
 F2 z [Ad]2 z [GB]2 z [EA]2 z | x12 | x12 | x12 | x12 | x12 | x12 | %27
w: |||||||
 [FAd]2 z [A=c]2 z [c^f]2 z [fa]2 z | x12 | x12 |] %30
w: |||
V:4
 x12 | x3[K:bass] x9 || x12 | x12 | x12 | x12 | x12 | x12 | x12 | x12 | x12 | x12 | x12 | x12 | %14
 D,3 C,3 =B,,3 B,,3 | x12 | x12 | x12 | x12 | x12 | x12 | x12 | x12 | x12 | x12 | x12 | x12 | x12 | %28
 x12 | x12 |] %30

